X:6
T:Erchless Castle
R:march
D:Cape Breton Fiddle and Piano Music, The Beaton Family of Mabou
B:Logan's Bagapipe Tutur,1963
Z:Paul Stewart Cranford (P.S.C.), <http://www.cranfordpub.com>
L:1/8
M:C|
Q:300
K:A
e>d|c>Ac<e a2 e<a|f2 e2 e2 e<a|f>ga>e f<ac<e|f2 B2 B2 e>d|
c>Ac<e a2 e<a|f2 e2 e2 e<a|f>ga>e f<aB>d|c2 A2 A2:|
|:e>d|c>Ac>d {c}e2 d>c|d>ef<d a>gf>e|f>ga>e f<ac<e|f2 B2  B2 e>d|
c>Ac>d {c}e2 d>c|d>ef<d a>gf>e|f>ga>e f<aB>d|c2 A2 A2:|
